app/img/main/ic_end.svg

<svg width="89" height="79" viewBox="0 0 89 79" fill="none" xmlns="http://www.w3.org/2000/svg">
    <rect width="89" height="79" rx="20" fill="url(#paint0_linear)"/>
    <rect x="0.5" y="0.5" width="88" height="78" rx="19.5" stroke="#FAFAFA" stroke-opacity="0.1"/>
    <path d="M27.2222 22C25.3873 22 23.8889 23.5175 23.8889 25.3333V47.8681C22.5676 50.69 21.2438 53.5521 20.1042 55.9757C20.036 56.1219 20.0001 56.2831 20 56.4444V58.6667C20 59.6419 20.4065 60.5949 21.1458 61.184C21.8851 61.7732 22.8364 62 23.8889 62H66.1111C67.1636 62 68.1149 61.7733 68.8542 61.184C69.5935 60.5949 70 59.6419 70 58.6667V56.4444C69.9999 56.2831 69.964 56.1219 69.8958 55.9757L66.1111 47.8681V25.3333C66.1111 23.5175 64.6127 22 62.7778 22H27.2222ZM27.2222 24.2222H62.7778C63.5499 24.2222 63.8889 24.575 63.8889 25.3333V47.5556H26.1111V25.3333C26.1111 24.575 26.4501 24.2222 27.2222 24.2222ZM25.4514 49.7778H64.5486L67.1528 55.3333H22.8472L25.4514 49.7778ZM22.2222 57.5556H67.7778V58.6667C67.7778 59.1231 67.6711 59.2665 67.4653 59.4306C67.2595 59.5946 66.8337 59.7778 66.1111 59.7778H23.8889C23.1664 59.7778 22.7406 59.5946 22.5347 59.4306C22.3289 59.2665 22.2222 59.1231 22.2222 58.6667V57.5556Z"
          fill="white" stroke="white"/>
    <path d="M36 39.4004V43.2004C36 43.8004 36.4 44.2004 37 44.2004H53.1C53.7 44.2004 54.1 43.8004 54.1 43.2004V39.4004C54.1 36.6004 51.9 34.4004 49.1 34.4004H41C38.2 34.4004 36 36.7004 36 39.4004ZM38 39.4004C38 37.7004 39.3 36.4004 41 36.4004H49.1C50.8 36.4004 52.1 37.7004 52.1 39.4004V42.2004H38V39.4004Z"
          fill="#022AF0"/>
    <path d="M45.1 32.9C48.1 32.9 50.4 29.9 50.4 27.2C50.4 24.4 48 22 45.1 22C42.2 22 39.8 24.3 39.8 27.2C39.8 29.9 42 32.9 45.1 32.9ZM45.1 24C46.9 24 48.4 25.4 48.4 27.2C48.4 28.9 47 30.9 45.1 30.9C43.2 30.9 41.8 28.9 41.8 27.2C41.8 25.4 43.2 24 45.1 24Z"
          fill="#022AF0"/>
    <defs>
        <linearGradient id="paint0_linear" x1="30" y1="13" x2="105" y2="99" gradientUnits="userSpaceOnUse">
            <stop stop-color="#5DD4E8"/>
            <stop offset="1" stop-color="#76F3B5"/>
        </linearGradient>
    </defs>
</svg>

<svg width="89" height="79" fill="none" xmlns="http://www.w3.org/2000/svg"><rect width="89" height="79" rx="20" fill="url(#a)"/><rect x=".5" y=".5" width="88" height="78" rx="19.5" stroke="#FAFAFA" stroke-opacity=".1"/><path d="M27.222 22c-1.835 0-3.333 1.517-3.333 3.333v22.535c-1.321 2.822-2.645 5.684-3.785 8.108a1.115 1.115 0 0 0-.104.468v2.223c0 .975.407 1.928 1.146 2.517.74.59 1.69.816 2.743.816H66.11c1.053 0 2.004-.227 2.743-.816.74-.59 1.146-1.542 1.146-2.517v-2.223c0-.16-.036-.322-.104-.468l-3.785-8.108V25.333c0-1.816-1.498-3.333-3.333-3.333H27.222Zm0 2.222h35.556c.772 0 1.11.353 1.11 1.111v22.223H26.112V25.333c0-.758.34-1.11 1.111-1.11Zm-1.77 25.556h39.097l2.604 5.555H22.847l2.604-5.555Zm-3.23 7.778h45.556v1.11c0 .457-.107.6-.313.765-.206.164-.631.347-1.354.347H23.89c-.723 0-1.148-.183-1.354-.347-.206-.164-.313-.308-.313-.764v-1.111Z" fill="#fff" stroke="#fff"/><path d="M36 39.4v3.8c0 .6.4 1 1 1h16.1c.6 0 1-.4 1-1v-3.8c0-2.8-2.2-5-5-5H41c-2.8 0-5 2.3-5 5Zm2 0c0-1.7 1.3-3 3-3h8.1c1.7 0 3 1.3 3 3v2.8H38v-2.8ZM45.1 32.9c3 0 5.3-3 5.3-5.7 0-2.8-2.4-5.2-5.3-5.2s-5.3 2.3-5.3 5.2c0 2.7 2.2 5.7 5.3 5.7Zm0-8.9c1.8 0 3.3 1.4 3.3 3.2 0 1.7-1.4 3.7-3.3 3.7s-3.3-2-3.3-3.7c0-1.8 1.4-3.2 3.3-3.2Z" fill="#022AF0"/><defs><linearGradient id="a" x1="30" y1="13" x2="105" y2="99" gradientUnits="userSpaceOnUse"><stop stop-color="#5DD4E8"/><stop offset="1" stop-color="#76F3B5"/></linearGradient></defs></svg>
